X: 21072
T: The Braes of Breadalbane II
C: McFadyen
R: strathspey
B: RSCDS 21-7(II)
Z: 1997 by John Chambers <jc:trillian.mit.edu>
M: 4/4
L: 1/8
K: C
|: G \
| "C"c>d e>d "F"c>A "C"GE | "C"CG cB/c/ "G7"dD DG \
| "C"c>d e>d "F"c>A "C"GE | "G7"G,<G, A,>B, "C"C2- C :|
e/f/ \
| "C"g>a gf/e/ c'g ec | "F"fa/f/ "C"eg/e/ "Dm"d>c "G7"de \
| "C"g>a gf/e/ c'g ec | "Dm"f>d "G7"e>B "C"[c2E2]- ce |
| "C"g>a gf/e/ c'g ec | "F"f/a/g/f/ "C"e/g/f/e/ "Dm"d>c "G7"de \
| "C"G>c e>d "F"c>A "C"GE | "G7"G,<G, A,>B, "C"C2- C |]
%%center Book21/21072-Braes_of_Breadalbane_II-1.abc

%%sep 1 1 500
%%sep 1 1 500

